;START_OF_HEADER
;HEADER_VERSION:0.1
;FLAVOR:Griffin
;GENERATOR.NAME:Cura_SteamEngine
;GENERATOR.VERSION:4.6.1
;GENERATOR.BUILD_DATE:2020-04-29
;TARGET_MACHINE.NAME:Ultimaker 3
;EXTRUDER_TRAIN.0.INITIAL_TEMPERATURE:205
;EXTRUDER_TRAIN.0.MATERIAL.VOLUME_USED:2454
;EXTRUDER_TRAIN.0.MATERIAL.GUID:9cfe5bf1-bdc5-4beb-871a-52c70777842d
;EXTRUDER_TRAIN.0.NOZZLE.DIAMETER:0.4
;EXTRUDER_TRAIN.0.NOZZLE.NAME:AA 0.4
;BUILD_PLATE.TYPE:glass
;BUILD_PLATE.INITIAL_TEMPERATURE:60
;PRINT.TIME:2110
;PRINT.GROUPS:1
;PRINT.SIZE.MIN.X:9
;PRINT.SIZE.MIN.Y:6
;PRINT.SIZE.MIN.Z:0.27
;PRINT.SIZE.MAX.X:131.075
;PRINT.SIZE.MAX.Y:123.268
;PRINT.SIZE.MAX.Z:21.42
;END_OF_HEADER
;Generated with Cura_SteamEngine 4.6.1
T0
M82 ;absolute extrusion mode

G92 E0
M109 S205
G0 F15000 X9 Y6 Z2
G280
G1 F1500 E-6.5
;LAYER_COUNT:142
;LAYER:0
M107
M204 S625
M205 X6 Y6
G0 F3750 X99.069 Y97.719 Z0.27
M204 S500
M205 X5 Y5
;TYPE:SKIRT
G1 F1500 E0
G1 F1200 X99.644 Y97.246 E0.01324
G1 X100.267 Y96.838 E0.02647
G1 X100.929 Y96.499 E0.03969
G1 X101.624 Y96.233 E0.05292
G1 X102.344 Y96.043 E0.06616
G1 X103.08 Y95.931 E0.07939
G1 X103.749 Y95.899 E0.0913
G1 X117.122 Y95.898 E0.32902
G1 X117.866 Y95.938 E0.34226
G1 X118.6 Y96.057 E0.35548
G1 X119.318 Y96.255 E0.36872
G1 X120.01 Y96.528 E0.38194
G1 X120.669 Y96.874 E0.39517
G1 X121.181 Y97.211 E0.40607
G1 X121.88 Y97.716 E0.4214
G1 X122.459 Y98.183 E0.43462
G1 X122.985 Y98.71 E0.44786
G1 X123.451 Y99.291 E0.4611
G1 X123.852 Y99.918 E0.47433
G1 X124.184 Y100.584 E0.48755
G1 X124.442 Y101.282 E0.50078
G1 X124.623 Y102.004 E0.51401
G1 X124.727 Y102.741 E0.52724
G1 X124.752 Y103.334 E0.53779
G1 X124.751 Y115.834 E0.75999
G1 X124.711 Y116.577 E0.77322
G1 X124.591 Y117.311 E0.78644
G1 X124.394 Y118.029 E0.79968
G1 X124.12 Y118.721 E0.81291
G1 X123.774 Y119.38 E0.82614
G1 X123.36 Y119.998 E0.83936
G1 X122.881 Y120.568 E0.8526
G1 X122.459 Y120.982 E0.8631
G1 X122.006 Y121.39 E0.87394
G1 X121.427 Y121.858 E0.88718
G1 X120.801 Y122.261 E0.90041
G1 X119.919 Y122.684 E0.9178
G1 X118.968 Y123.018 E0.93571
G1 X118.241 Y123.177 E0.94894
G1 X117.501 Y123.258 E0.96218
G1 X103.75 Y123.268 E1.20661
G1 X103.007 Y123.228 E1.21984
G1 X102.272 Y123.109 E1.23308
G1 X101.554 Y122.911 E1.24632
G1 X100.862 Y122.638 E1.25954
G1 X100.203 Y122.292 E1.27277
G1 X99.585 Y121.877 E1.286
G1 X99.015 Y121.398 E1.29924
G1 X98.665 Y121.033 E1.30823
G1 X98.135 Y120.513 E1.32143
G1 X97.663 Y119.938 E1.33465
G1 X97.255 Y119.315 E1.34789
G1 X96.916 Y118.653 E1.36111
G1 X96.65 Y117.958 E1.37434
G1 X96.46 Y117.238 E1.38757
G1 X96.348 Y116.502 E1.40081
G1 X96.316 Y115.834 E1.41269
G1 X96.315 Y103.334 E1.63489
G1 X96.355 Y102.59 E1.64814
G1 X96.474 Y101.856 E1.66136
G1 X96.672 Y101.138 E1.6746
G1 X96.945 Y100.446 E1.68782
G1 X97.291 Y99.787 E1.70105
G1 X97.706 Y99.169 E1.71428
G1 X98.184 Y98.599 E1.72751
G1 X98.561 Y98.237 E1.7368
G1 X99.069 Y97.719 E1.74969
M204 S625
M205 X6 Y6
G0 F3750 X99.369 Y98.014
M204 S500
M205 X5 Y5
G1 F1200 X99.929 Y97.558 E1.76253
G1 X100.536 Y97.168 E1.77536
G1 X101.182 Y96.847 E1.78818
G1 X101.859 Y96.6 E1.80099
G1 X102.56 Y96.429 E1.81382
G1 X103.276 Y96.336 E1.82665
G1 X103.75 Y96.319 E1.83508
G1 X117.123 Y96.318 E2.0728
G1 X117.843 Y96.358 E2.08562
G1 X118.554 Y96.477 E2.09843
G1 X119.248 Y96.675 E2.11126
G1 X119.916 Y96.948 E2.12409
G1 X120.549 Y97.293 E2.1369
G1 X121.634 Y98.056 E2.16048
G1 X122.195 Y98.51 E2.17331
G1 X122.702 Y99.024 E2.18615
G1 X123.148 Y99.59 E2.19896
G1 X123.53 Y100.202 E2.21178
G1 X123.841 Y100.853 E2.2246
G1 X124.079 Y101.534 E2.23743
G1 X124.239 Y102.238 E2.25026
G1 X124.321 Y102.954 E2.26307
G1 X124.331 Y115.834 E2.49203
G1 X124.291 Y116.554 E2.50485
G1 X124.171 Y117.265 E2.51766
G1 X123.974 Y117.959 E2.53049
G1 X123.701 Y118.627 E2.54331
G1 X123.356 Y119.26 E2.55613
G1 X122.943 Y119.852 E2.56896
G1 X122.467 Y120.394 E2.58178
G1 X121.725 Y121.078 E2.59972
G1 X121.163 Y121.531 E2.61255
G1 X120.554 Y121.918 E2.62538
G1 X119.764 Y122.294 E2.64093
G1 X118.835 Y122.619 E2.65843
G1 X118.13 Y122.77 E2.67124
G1 X117.123 Y122.848 E2.6892
G1 X103.75 Y122.848 E2.92692
G1 X103.03 Y122.808 E2.93973
G1 X102.318 Y122.689 E2.95257
G1 X101.624 Y122.491 E2.9654
G1 X100.957 Y122.218 E2.97821
G1 X100.323 Y121.873 E2.99104
G1 X99.732 Y121.46 E3.00385
G1 X99.19 Y120.984 E3.01668
G1 X98.43 Y120.213 E3.03592
G1 X97.975 Y119.653 E3.04875
G1 X97.584 Y119.047 E3.06157
G1 X97.264 Y118.4 E3.0744
G1 X97.016 Y117.723 E3.08721
G1 X96.845 Y117.022 E3.10004
G1 X96.753 Y116.306 E3.11287
G1 X96.736 Y115.834 E3.12127
G1 X96.735 Y103.334 E3.34347
G1 X96.775 Y102.613 E3.3563
G1 X96.894 Y101.902 E3.36912
G1 X97.092 Y101.208 E3.38195
G1 X97.365 Y100.54 E3.39478
G1 X97.71 Y99.907 E3.40759
G1 X98.123 Y99.315 E3.42042
G1 X98.599 Y98.773 E3.43324
G1 X99.369 Y98.014 E3.45246
M204 S625
M205 X6 Y6
G0 F3750 X99.669 Y98.309
M204 S500
M205 X5 Y5
G1 F1200 X100.213 Y97.872 E3.46487
G1 X100.803 Y97.5 E3.47727
G1 X101.432 Y97.197 E3.48968
G1 X102.091 Y96.969 E3.50207
G1 X102.772 Y96.818 E3.51447
G1 X103.75 Y96.739 E3.53191
G1 X117.123 Y96.738 E3.76963
G1 X117.819 Y96.778 E3.78202
G1 X118.507 Y96.897 E3.79443
G1 X119.176 Y97.094 E3.80683
G1 X119.818 Y97.367 E3.81923
G1 X120.689 Y97.892 E3.83731
G1 X121.388 Y98.397 E3.85264
G1 X121.93 Y98.837 E3.86505
G1 X122.417 Y99.336 E3.87744
G1 X122.844 Y99.888 E3.88985
G1 X123.205 Y100.485 E3.90225
G1 X123.495 Y101.119 E3.91464
G1 X123.711 Y101.783 E3.92706
G1 X123.85 Y102.467 E3.93946
G1 X123.912 Y103.333 E3.9549
G1 X123.911 Y115.833 E4.1771
G1 X123.871 Y116.53 E4.18951
G1 X123.752 Y117.217 E4.2019
G1 X123.554 Y117.887 E4.21432
G1 X123.282 Y118.529 E4.22671
G1 X122.938 Y119.136 E4.23912
G1 X122.526 Y119.699 E4.25152
G1 X121.897 Y120.358 E4.26771
G1 X121.444 Y120.766 E4.27855
G1 X120.899 Y121.203 E4.29097
G1 X120.309 Y121.574 E4.30336
G1 X119.61 Y121.903 E4.31709
G1 X118.702 Y122.22 E4.33418
G1 X118.019 Y122.362 E4.34658
G1 X117.123 Y122.428 E4.36256
G1 X103.75 Y122.428 E4.60027
G1 X103.053 Y122.388 E4.61268
G1 X102.366 Y122.269 E4.62508
G1 X101.697 Y122.071 E4.63748
G1 X101.054 Y121.799 E4.64989
G1 X100.448 Y121.455 E4.66228
G1 X99.884 Y121.043 E4.67469
G1 X99.371 Y120.57 E4.6871
G1 X98.725 Y119.913 E4.70348
G1 X98.288 Y119.37 E4.71587
G1 X97.916 Y118.779 E4.72828
G1 X97.614 Y118.15 E4.74068
G1 X97.386 Y117.491 E4.75308
G1 X97.235 Y116.81 E4.76548
G1 X97.156 Y115.833 E4.7829
G1 X97.155 Y103.333 E5.0051
G1 X97.195 Y102.637 E5.01749
G1 X97.314 Y101.949 E5.0299
G1 X97.511 Y101.28 E5.0423
G1 X97.784 Y100.638 E5.0547
G1 X98.128 Y100.031 E5.0671
G1 X98.539 Y99.467 E5.07951
G1 X99.012 Y98.954 E5.09191
G1 X99.669 Y98.309 E5.10828
M204 S625
M205 X6 Y6
G0 F3750 X99.968 Y98.605
M204 S500
M205 X5 Y5
G1 F1200 X100.495 Y98.186 E5.12025
G1 X101.068 Y97.833 E5.13221
G1 X101.679 Y97.551 E5.14417
G1 X102.32 Y97.342 E5.15616
G1 X102.98 Y97.212 E5.16812
G1 X103.75 Y97.159 E5.18184
G1 X117.123 Y97.158 E5.41955
G1 X117.795 Y97.198 E5.43152
G1 X118.457 Y97.317 E5.44348
G1 X119.101 Y97.514 E5.45545
G1 X119.717 Y97.786 E5.46742
G1 X120.443 Y98.232 E5.48256
G1 X121.142 Y98.737 E5.49789
G1 X121.664 Y99.163 E5.50987
G1 X122.131 Y99.648 E5.52184
G1 X122.537 Y100.184 E5.53379
G1 X122.877 Y100.765 E5.54576
G1 X123.146 Y101.383 E5.55774
G1 X123.34 Y102.027 E5.56969
G1 X123.455 Y102.691 E5.58167
G1 X123.492 Y103.333 E5.5931
G1 X123.491 Y115.833 E5.8153
G1 X123.451 Y116.505 E5.82727
G1 X123.332 Y117.168 E5.83924
G1 X123.135 Y117.812 E5.85122
G1 X122.863 Y118.428 E5.86319
G1 X122.52 Y119.007 E5.87515
G1 X122.11 Y119.541 E5.88712
G1 X121.616 Y120.046 E5.89967
G1 X121.163 Y120.454 E5.91051
G1 X120.636 Y120.874 E5.92249
G1 X120.064 Y121.229 E5.93446
G1 X119.455 Y121.513 E5.9464
G1 X118.571 Y121.82 E5.96304
G1 X117.911 Y121.953 E5.975
G1 X117.123 Y122.008 E5.98905
G1 X103.75 Y122.008 E6.22676
G1 X103.078 Y121.968 E6.23873
G1 X102.415 Y121.849 E6.2507
G1 X101.772 Y121.652 E6.26266
G1 X101.156 Y121.38 E6.27463
G1 X100.577 Y121.037 E6.28659
G1 X100.042 Y120.628 E6.29856
G1 X99.56 Y120.158 E6.31053
G1 X99.021 Y119.614 E6.32414
G1 X98.603 Y119.087 E6.3361
G1 X98.25 Y118.514 E6.34806
G1 X97.967 Y117.903 E6.36003
G1 X97.759 Y117.262 E6.37201
G1 X97.628 Y116.602 E6.38397
G1 X97.576 Y115.833 E6.39767
G1 X97.575 Y103.333 E6.61987
G1 X97.615 Y102.661 E6.63184
G1 X97.734 Y101.999 E6.6438
G1 X97.931 Y101.355 E6.65577
G1 X98.203 Y100.739 E6.66774
G1 X98.546 Y100.16 E6.6797
G1 X98.955 Y99.625 E6.69167
G1 X99.425 Y99.143 E6.70364
G1 X99.968 Y98.605 E6.71723
M204 S625
M205 X6 Y6
G0 F3750 X100.266 Y98.901
M204 S500
M205 X5 Y5
G1 F1200 X100.777 Y98.502 E6.72875
G1 X101.332 Y98.169 E6.74026
G1 X101.924 Y97.907 E6.75176
G1 X102.544 Y97.719 E6.76328
G1 X103.183 Y97.61 E6.7748
G1 X103.75 Y97.579 E6.7849
G1 X117.123 Y97.578 E7.02262
G1 X117.769 Y97.618 E7.03412
G1 X118.406 Y97.737 E7.04564
G1 X119.023 Y97.934 E7.05715
G1 X119.611 Y98.205 E7.06866
G1 X120.197 Y98.572 E7.08095
G1 X120.896 Y99.077 E7.09628
G1 X121.397 Y99.488 E7.1078
G1 X121.843 Y99.958 E7.11932
G1 X122.228 Y100.479 E7.13083
G1 X122.546 Y101.043 E7.14234
G1 X122.792 Y101.642 E7.15385
G1 X122.963 Y102.267 E7.16537
G1 X123.055 Y102.909 E7.1769
G1 X123.072 Y103.333 E7.18444
G1 X123.071 Y115.833 E7.40664
G1 X123.031 Y116.48 E7.41817
G1 X122.912 Y117.117 E7.42969
G1 X122.715 Y117.734 E7.4412
G1 X122.444 Y118.322 E7.45271
G1 X122.102 Y118.872 E7.46422
G1 X121.695 Y119.376 E7.47574
G1 X121.334 Y119.734 E7.48477
G1 X120.881 Y120.142 E7.49561
G1 X120.374 Y120.545 E7.50712
G1 X119.821 Y120.882 E7.51864
G1 X119.301 Y121.122 E7.52882
G1 X118.44 Y121.42 E7.54501
G1 X117.804 Y121.544 E7.55653
G1 X117.123 Y121.588 E7.56866
G1 X103.75 Y121.588 E7.80638
G1 X103.103 Y121.548 E7.8179
G1 X102.467 Y121.429 E7.8294
G1 X101.85 Y121.232 E7.84092
G1 X101.261 Y120.961 E7.85244
G1 X100.711 Y120.619 E7.86396
G1 X100.207 Y120.212 E7.87547
G1 X99.818 Y119.809 E7.88543
G1 X99.318 Y119.316 E7.89791
G1 X98.919 Y118.806 E7.90942
G1 X98.586 Y118.25 E7.92094
G1 X98.323 Y117.658 E7.93246
G1 X98.136 Y117.038 E7.94397
G1 X98.027 Y116.399 E7.95549
G1 X97.996 Y115.833 E7.96557
G1 X97.995 Y103.333 E8.18777
G1 X98.035 Y102.687 E8.19927
G1 X98.154 Y102.05 E8.21079
G1 X98.351 Y101.433 E8.2223
G1 X98.622 Y100.845 E8.23381
G1 X98.964 Y100.294 E8.24534
G1 X99.37 Y99.79 E8.25684
G1 X99.773 Y99.4 E8.26681
G1 X100.266 Y98.901 E8.27928
M204 S625
M205 X6 Y6
G0 F3750 X100.564 Y99.199
M204 S500
M205 X5 Y5
G1 F1200 X101.056 Y98.82 E8.29032
G1 X101.593 Y98.507 E8.30137
G1 X102.166 Y98.266 E8.31242
G1 X102.765 Y98.101 E8.32347
G1 X103.38 Y98.013 E8.33451
G1 X103.75 Y97.999 E8.34109
G1 X117.123 Y97.998 E8.57881
G1 X117.743 Y98.038 E8.58985
G1 X118.352 Y98.157 E8.60088
G1 X118.942 Y98.354 E8.61194
G1 X119.501 Y98.624 E8.62298
G1 X119.952 Y98.913 E8.6325
G1 X120.651 Y99.418 E8.64783
G1 X121.13 Y99.813 E8.65886
G1 X121.554 Y100.267 E8.66991
G1 X121.917 Y100.771 E8.68095
G1 X122.212 Y101.318 E8.69199
G1 X122.434 Y101.898 E8.70303
G1 X122.58 Y102.502 E8.71408
G1 X122.652 Y103.333 E8.72891
G1 X122.651 Y115.833 E8.95111
G1 X122.611 Y116.453 E8.96215
G1 X122.492 Y117.063 E8.9732
G1 X122.295 Y117.653 E8.98425
G1 X122.025 Y118.212 E8.99529
G1 X121.684 Y118.732 E9.00634
G1 X121.28 Y119.204 E9.01739
G1 X120.6 Y119.83 E9.03382
G1 X120.113 Y120.215 E9.04485
G1 X119.58 Y120.535 E9.0559
G1 X118.901 Y120.829 E9.06906
G1 X118.31 Y121.02 E9.0801
G1 X117.699 Y121.134 E9.09115
G1 X117.123 Y121.168 E9.1014
G1 X103.75 Y121.168 E9.33912
G1 X103.13 Y121.128 E9.35016
G1 X102.52 Y121.009 E9.36121
G1 X101.931 Y120.812 E9.37225
G1 X101.372 Y120.542 E9.38329
G1 X100.852 Y120.202 E9.39433
G1 X100.38 Y119.798 E9.40538
G1 X99.615 Y119.018 E9.4248
G1 X99.236 Y118.526 E9.43584
G1 X98.924 Y117.989 E9.44688
G1 X98.683 Y117.416 E9.45793
G1 X98.517 Y116.817 E9.46898
G1 X98.43 Y116.202 E9.48002
G1 X98.416 Y115.833 E9.48658
G1 X98.415 Y103.333 E9.70878
G1 X98.455 Y102.713 E9.71982
G1 X98.574 Y102.104 E9.73085
G1 X98.771 Y101.514 E9.74191
G1 X99.041 Y100.955 E9.75295
G1 X99.381 Y100.435 E9.76399
G1 X99.785 Y99.963 E9.77503
G1 X100.564 Y99.199 E9.79443
M204 S625
M205 X6 Y6
G0 F3750 X100.861 Y99.497
M204 S500
M205 X5 Y5
G1 F1200 X101.335 Y99.139 E9.80499
G1 X101.852 Y98.848 E9.81554
G1 X102.404 Y98.629 E9.82609
G1 X102.98 Y98.487 E9.83664
G1 X103.75 Y98.419 E9.85038
G1 X117.123 Y98.418 E10.0881
G1 X117.715 Y98.458 E10.09864
G1 X118.297 Y98.577 E10.1092
G1 X118.857 Y98.773 E10.11975
G1 X119.386 Y99.043 E10.13031
G1 X120.405 Y99.758 E10.15244
G1 X120.861 Y100.138 E10.16299
G1 X121.263 Y100.575 E10.17354
G1 X121.602 Y101.062 E10.18409
G1 X121.873 Y101.59 E10.19464
G1 X122.07 Y102.15 E10.20519
G1 X122.191 Y102.731 E10.21574
G1 X122.232 Y103.333 E10.22647
G1 X122.231 Y115.833 E10.44867
G1 X122.191 Y116.426 E10.45923
G1 X122.072 Y117.007 E10.46977
G1 X121.876 Y117.567 E10.48032
G1 X121.606 Y118.096 E10.49088
G1 X121.268 Y118.584 E10.50143
G1 X120.772 Y119.11 E10.51428
G1 X120.319 Y119.518 E10.52512
G1 X119.852 Y119.885 E10.53568
G1 X119.341 Y120.185 E10.54621
G1 X118.746 Y120.438 E10.5577
G1 X118.181 Y120.619 E10.56825
G1 X117.596 Y120.723 E10.57881
G1 X117.123 Y120.748 E10.58723
G1 X103.75 Y120.748 E10.82495
G1 X103.158 Y120.708 E10.8355
G1 X102.576 Y120.589 E10.84606
G1 X102.016 Y120.393 E10.8566
G1 X101.487 Y120.123 E10.86716
G1 X100.999 Y119.785 E10.87771
G1 X100.561 Y119.384 E10.88827
G1 X100.457 Y119.253 E10.89124
G1 X99.914 Y118.721 E10.90476
G1 X99.556 Y118.248 E10.9153
G1 X99.265 Y117.73 E10.92586
G1 X99.046 Y117.178 E10.93642
G1 X98.904 Y116.602 E10.94696
G1 X98.836 Y115.833 E10.96069
G1 X98.835 Y103.333 E11.18289
G1 X98.875 Y102.741 E11.19343
G1 X98.994 Y102.159 E11.20399
G1 X99.19 Y101.599 E11.21454
G1 X99.46 Y101.07 E11.2251
G1 X99.798 Y100.582 E11.23565
G1 X100.199 Y100.144 E11.24621
G1 X100.33 Y100.04 E11.24918
G1 X100.861 Y99.497 E11.26268
M204 S625
M205 X6 Y6
G0 F3750 X101.157 Y99.796
M204 S500
M205 X5 Y5
G1 F1200 X101.611 Y99.461 E11.27271
G1 X102.108 Y99.193 E11.28275
G1 X102.638 Y98.997 E11.29279
G1 X103.19 Y98.879 E11.30283
G1 X103.75 Y98.839 E11.31281
G1 X117.123 Y98.838 E11.55052
G1 X117.686 Y98.878 E11.56056
G1 X118.238 Y98.997 E11.57059
G1 X118.767 Y99.193 E11.58062
G1 X119.46 Y99.594 E11.59485
G1 X120.159 Y100.099 E11.61018
G1 X120.592 Y100.461 E11.62022
G1 X120.969 Y100.881 E11.63025
G1 X121.284 Y101.35 E11.64029
G1 X121.529 Y101.858 E11.65032
G1 X121.7 Y102.396 E11.66035
G1 X121.794 Y102.953 E11.67039
G1 X121.812 Y103.333 E11.67716
G1 X121.811 Y115.833 E11.89936
G1 X121.771 Y116.397 E11.90941
G1 X121.652 Y116.948 E11.91943
G1 X121.456 Y117.478 E11.92947
G1 X121.188 Y117.975 E11.93951
G1 X120.851 Y118.428 E11.94955
G1 X120.491 Y118.798 E11.95872
G1 X120.038 Y119.206 E11.96956
G1 X119.593 Y119.553 E11.97959
G1 X119.103 Y119.834 E11.98963
G1 X118.592 Y120.048 E11.99948
G1 X118.053 Y120.218 E12.00953
G1 X117.496 Y120.31 E12.01956
G1 X117.123 Y120.328 E12.0262
G1 X103.75 Y120.328 E12.26392
G1 X103.187 Y120.288 E12.27395
G1 X102.635 Y120.169 E12.28399
G1 X102.105 Y119.973 E12.29403
G1 X101.609 Y119.705 E12.30405
G1 X101.155 Y119.369 E12.31409
G1 X100.753 Y118.972 E12.32414
G1 X100.213 Y118.425 E12.3378
G1 X99.877 Y117.971 E12.34784
G1 X99.609 Y117.474 E12.35788
G1 X99.414 Y116.945 E12.3679
G1 X99.295 Y116.393 E12.37794
G1 X99.256 Y115.833 E12.38792
G1 X99.255 Y103.333 E12.61012
G1 X99.295 Y102.77 E12.62015
G1 X99.414 Y102.218 E12.63019
G1 X99.61 Y101.689 E12.64022
G1 X99.878 Y101.192 E12.65025
G1 X100.214 Y100.738 E12.66029
G1 X100.611 Y100.336 E12.67034
G1 X101.157 Y99.796 E12.68399
M204 S625
M205 X6 Y6
G0 F3750 X101.452 Y100.097
M204 S500
M205 X5 Y5
G1 F1200 X101.885 Y99.785 E12.69347
G1 X102.36 Y99.541 E12.70297
G1 X102.866 Y99.37 E12.71246
G1 X103.392 Y99.277 E12.72196
G1 X103.75 Y99.259 E12.72833
G1 X117.123 Y99.258 E12.96605
G1 X117.655 Y99.298 E12.97553
G1 X118.176 Y99.417 E12.98503
G1 X118.673 Y99.612 E12.99452
G1 X119.214 Y99.934 E13.00571
G1 X119.913 Y100.439 E13.02104
G1 X120.321 Y100.783 E13.03053
G1 X120.673 Y101.185 E13.04002
G1 X120.962 Y101.634 E13.04952
G1 X121.18 Y102.122 E13.05902
G1 X121.323 Y102.636 E13.0685
G1 X121.392 Y103.333 E13.08095
G1 X121.391 Y115.833 E13.30315
G1 X121.351 Y116.366 E13.31265
G1 X121.232 Y116.886 E13.32213
G1 X121.037 Y117.383 E13.33162
