;START_OF_HEADER
;HEADER_VERSION:0.1
;FLAVOR:Griffin
;GENERATOR.NAME:Cura_SteamEngine
;GENERATOR.VERSION:4.6.1
;GENERATOR.BUILD_DATE:2020-04-29
;TARGET_MACHINE.NAME:Ultimaker 3
;EXTRUDER_TRAIN.0.INITIAL_TEMPERATURE:205
;EXTRUDER_TRAIN.0.MATERIAL.VOLUME_USED:858
;EXTRUDER_TRAIN.0.MATERIAL.GUID:9cfe5bf1-bdc5-4beb-871a-52c70777842d
;EXTRUDER_TRAIN.0.NOZZLE.DIAMETER:0.4
;EXTRUDER_TRAIN.0.NOZZLE.NAME:AA 0.4
;BUILD_PLATE.TYPE:glass
;BUILD_PLATE.INITIAL_TEMPERATURE:60
;PRINT.TIME:531
;PRINT.GROUPS:1
;PRINT.SIZE.MIN.X:9
;PRINT.SIZE.MIN.Y:6
;PRINT.SIZE.MIN.Z:0.27
;PRINT.SIZE.MAX.X:133.43
;PRINT.SIZE.MAX.Y:116.93
;PRINT.SIZE.MAX.Z:9.87
;END_OF_HEADER
;Generated with Cura_SteamEngine 4.6.1
T0
M82 ;absolute extrusion mode

G92 E0
M109 S205
G0 F15000 X9 Y6 Z2
G280
G1 F1500 E-6.5
;LAYER_COUNT:65
;LAYER:0
M107
M204 S625
M205 X6 Y6
G0 F3750 X101.44 Y100.265 Z0.27
M204 S500
M205 X5 Y5
;TYPE:SKIRT
G1 F1500 E0
G1 F1200 X101.977 Y99.75 E0.01323
G1 X102.566 Y99.295 E0.02646
G1 X103.2 Y98.906 E0.03968
G1 X103.873 Y98.587 E0.05292
G1 X104.576 Y98.342 E0.06615
G1 X105.301 Y98.174 E0.07938
G1 X106.04 Y98.085 E0.09261
G1 X106.5 Y98.07 E0.10079
G1 X126.5 Y98.07 E0.45631
G1 X127.243 Y98.11 E0.46954
G1 X127.978 Y98.229 E0.48277
G1 X128.696 Y98.427 E0.49601
G1 X129.388 Y98.7 E0.50924
G1 X130.047 Y99.046 E0.52247
G1 X130.665 Y99.461 E0.5357
G1 X131.235 Y99.94 E0.54894
G1 X131.75 Y100.477 E0.56216
G1 X132.205 Y101.066 E0.57539
G1 X132.594 Y101.7 E0.58861
G1 X132.913 Y102.373 E0.60185
G1 X133.158 Y103.076 E0.61509
G1 X133.326 Y103.801 E0.62832
G1 X133.415 Y104.54 E0.64155
G1 X133.43 Y105 E0.64973
G1 X133.43 Y110 E0.73861
G1 X133.39 Y110.743 E0.75184
G1 X133.271 Y111.478 E0.76507
G1 X133.073 Y112.196 E0.77831
G1 X132.8 Y112.888 E0.79153
G1 X132.454 Y113.547 E0.80477
G1 X132.039 Y114.165 E0.818
G1 X131.56 Y114.735 E0.83123
G1 X131.023 Y115.25 E0.84446
G1 X130.434 Y115.705 E0.85769
G1 X129.8 Y116.094 E0.87091
G1 X129.127 Y116.413 E0.88415
G1 X128.424 Y116.658 E0.89738
G1 X127.699 Y116.826 E0.91061
G1 X126.96 Y116.915 E0.92384
G1 X126.5 Y116.93 E0.93203
G1 X106.5 Y116.93 E1.28755
G1 X105.757 Y116.89 E1.30077
G1 X105.022 Y116.771 E1.31401
G1 X104.304 Y116.573 E1.32725
G1 X103.612 Y116.3 E1.34047
G1 X102.953 Y115.954 E1.3537
G1 X102.335 Y115.539 E1.36693
G1 X101.765 Y115.06 E1.38017
G1 X101.25 Y114.523 E1.3934
G1 X100.795 Y113.934 E1.40663
G1 X100.406 Y113.3 E1.41985
G1 X100.087 Y112.627 E1.43309
G1 X99.842 Y111.924 E1.44632
G1 X99.674 Y111.199 E1.45955
G1 X99.585 Y110.46 E1.47278
G1 X99.57 Y110 E1.48096
G1 X99.57 Y105 E1.56984
G1 X99.61 Y104.257 E1.58307
G1 X99.729 Y103.522 E1.5963
G1 X99.927 Y102.804 E1.60954
G1 X100.2 Y102.112 E1.62277
G1 X100.546 Y101.453 E1.636
G1 X100.961 Y100.835 E1.64923
G1 X101.44 Y100.265 E1.66247
M204 S625
M205 X6 Y6
G0 F3750 X101.854 Y100.44
M204 S500
M205 X5 Y5
G1 F1200 X102.387 Y99.954 E1.67529
G1 X102.971 Y99.53 E1.68812
G1 X103.598 Y99.173 E1.70094
G1 X104.26 Y98.887 E1.71376
G1 X104.95 Y98.677 E1.72658
G1 X105.659 Y98.545 E1.7394
G1 X106.5 Y98.49 E1.75438
G1 X126.5 Y98.49 E2.1099
G1 X127.22 Y98.53 E2.12272
G1 X127.932 Y98.649 E2.13555
G1 X128.626 Y98.847 E2.14838
G1 X129.293 Y99.12 E2.16119
G1 X129.927 Y99.465 E2.17402
G1 X130.518 Y99.878 E2.18684
G1 X131.06 Y100.354 E2.19966
G1 X131.546 Y100.887 E2.21248
G1 X131.97 Y101.471 E2.22531
G1 X132.327 Y102.098 E2.23814
G1 X132.613 Y102.76 E2.25096
G1 X132.823 Y103.45 E2.26378
G1 X132.955 Y104.159 E2.2766
G1 X133.01 Y105 E2.29158
G1 X133.01 Y110 E2.38046
G1 X132.97 Y110.72 E2.39328
G1 X132.851 Y111.432 E2.40611
G1 X132.653 Y112.126 E2.41894
G1 X132.38 Y112.793 E2.43175
G1 X132.035 Y113.427 E2.44458
G1 X131.622 Y114.018 E2.4574
G1 X131.146 Y114.56 E2.47022
G1 X130.613 Y115.046 E2.48304
G1 X130.029 Y115.47 E2.49587
G1 X129.402 Y115.827 E2.5087
G1 X128.74 Y116.113 E2.52152
G1 X128.05 Y116.323 E2.53434
G1 X127.341 Y116.455 E2.54716
G1 X126.5 Y116.51 E2.56214
G1 X106.5 Y116.51 E2.91766
G1 X105.78 Y116.47 E2.93048
G1 X105.068 Y116.351 E2.94331
G1 X104.374 Y116.153 E2.95614
G1 X103.707 Y115.88 E2.96895
G1 X103.073 Y115.535 E2.98178
G1 X102.482 Y115.122 E2.99459
G1 X101.94 Y114.646 E3.00742
G1 X101.454 Y114.113 E3.02024
G1 X101.03 Y113.529 E3.03307
G1 X100.673 Y112.902 E3.04589
G1 X100.387 Y112.24 E3.05871
G1 X100.177 Y111.55 E3.07153
G1 X100.045 Y110.841 E3.08435
G1 X99.99 Y110 E3.09933
G1 X99.99 Y105 E3.18821
G1 X100.03 Y104.28 E3.20103
G1 X100.149 Y103.568 E3.21386
G1 X100.347 Y102.874 E3.22669
G1 X100.62 Y102.207 E3.23951
G1 X100.965 Y101.573 E3.25234
G1 X101.378 Y100.982 E3.26515
G1 X101.854 Y100.44 E3.27797
M204 S625
M205 X6 Y6
G0 F3750 X102.268 Y100.621
M204 S500
M205 X5 Y5
G1 F1200 X102.796 Y100.166 E3.29036
G1 X103.373 Y99.774 E3.30276
G1 X103.992 Y99.451 E3.31518
G1 X104.643 Y99.2 E3.32758
G1 X105.319 Y99.026 E3.33999
G1 X106.01 Y98.93 E3.35239
G1 X106.5 Y98.91 E3.36111
G1 X126.5 Y98.91 E3.71662
G1 X127.197 Y98.95 E3.72903
G1 X127.884 Y99.069 E3.74143
G1 X128.553 Y99.267 E3.75383
G1 X129.196 Y99.539 E3.76624
G1 X129.802 Y99.883 E3.77863
G1 X130.366 Y100.295 E3.79104
G1 X130.879 Y100.768 E3.80345
G1 X131.334 Y101.296 E3.81584
G1 X131.726 Y101.873 E3.82824
G1 X132.049 Y102.492 E3.84065
G1 X132.3 Y103.143 E3.85305
G1 X132.474 Y103.819 E3.86546
G1 X132.57 Y104.51 E3.87786
G1 X132.59 Y105 E3.88658
G1 X132.59 Y110 E3.97546
G1 X132.55 Y110.697 E3.98787
G1 X132.431 Y111.384 E4.00026
G1 X132.233 Y112.053 E4.01266
G1 X131.961 Y112.696 E4.02507
G1 X131.617 Y113.302 E4.03746
G1 X131.205 Y113.866 E4.04988
G1 X130.732 Y114.379 E4.06228
G1 X130.204 Y114.834 E4.07467
G1 X129.627 Y115.226 E4.08707
G1 X129.008 Y115.549 E4.09948
G1 X128.357 Y115.8 E4.11188
G1 X127.681 Y115.974 E4.12429
G1 X126.99 Y116.07 E4.13669
G1 X126.5 Y116.09 E4.14541
G1 X106.5 Y116.09 E4.50093
G1 X105.803 Y116.05 E4.51334
G1 X105.116 Y115.931 E4.52574
G1 X104.447 Y115.733 E4.53814
G1 X103.804 Y115.461 E4.55055
G1 X103.198 Y115.117 E4.56293
G1 X102.634 Y114.705 E4.57535
G1 X102.121 Y114.232 E4.58775
G1 X101.666 Y113.704 E4.60014
G1 X101.274 Y113.127 E4.61254
G1 X100.951 Y112.508 E4.62496
G1 X100.7 Y111.857 E4.63736
G1 X100.526 Y111.181 E4.64977
G1 X100.43 Y110.49 E4.66217
G1 X100.41 Y110 E4.67088
G1 X100.41 Y105 E4.75976
G1 X100.45 Y104.303 E4.77217
G1 X100.569 Y103.616 E4.78457
G1 X100.767 Y102.947 E4.79697
G1 X101.039 Y102.304 E4.80938
G1 X101.383 Y101.698 E4.82177
G1 X101.795 Y101.134 E4.83418
G1 X102.268 Y100.621 E4.84659
M204 S625
M205 X6 Y6
G0 F3750 X102.21 Y101.292
M204 S500
M205 X5 Y5
G1 F1200 X102.68 Y100.81 E4.85855
G1 X103.204 Y100.387 E4.87053
G1 X103.774 Y100.028 E4.8825
G1 X104.382 Y99.74 E4.89446
G1 X105.02 Y99.526 E4.90642
G1 X105.68 Y99.39 E4.9184
G1 X106.5 Y99.33 E4.93301
G1 X126.5 Y99.33 E5.28853
G1 X127.172 Y99.37 E5.3005
G1 X127.835 Y99.489 E5.31247
G1 X128.478 Y99.686 E5.32443
G1 X129.094 Y99.958 E5.3364
G1 X129.673 Y100.301 E5.34836
G1 X130.208 Y100.71 E5.36033
G1 X130.69 Y101.18 E5.3723
G1 X131.113 Y101.704 E5.38427
G1 X131.472 Y102.274 E5.39625
G1 X131.76 Y102.882 E5.4082
G1 X131.974 Y103.52 E5.42017
G1 X132.11 Y104.18 E5.43214
G1 X132.17 Y105 E5.44676
G1 X132.17 Y110 E5.53564
G1 X132.13 Y110.672 E5.54761
G1 X132.011 Y111.335 E5.55958
G1 X131.814 Y111.978 E5.57153
G1 X131.542 Y112.594 E5.5835
G1 X131.199 Y113.173 E5.59547
G1 X130.79 Y113.708 E5.60744
G1 X130.32 Y114.19 E5.61941
G1 X129.796 Y114.613 E5.63138
G1 X129.226 Y114.972 E5.64335
G1 X128.618 Y115.26 E5.65531
G1 X127.98 Y115.474 E5.66727
G1 X127.32 Y115.61 E5.67925
G1 X126.5 Y115.67 E5.69387
G1 X106.5 Y115.67 E6.04939
G1 X105.828 Y115.63 E6.06135
G1 X105.165 Y115.511 E6.07333
G1 X104.522 Y115.314 E6.08528
G1 X103.906 Y115.042 E6.09725
G1 X103.327 Y114.699 E6.10921
G1 X102.792 Y114.29 E6.12118
G1 X102.31 Y113.82 E6.13315
G1 X101.887 Y113.296 E6.14512
G1 X101.528 Y112.726 E6.1571
G1 X101.24 Y112.118 E6.16905
G1 X101.026 Y111.48 E6.18102
G1 X100.89 Y110.82 E6.193
G1 X100.83 Y110 E6.20761
G1 X100.83 Y105 E6.29649
G1 X100.87 Y104.328 E6.30846
G1 X100.989 Y103.665 E6.32043
G1 X101.186 Y103.022 E6.33239
G1 X101.458 Y102.406 E6.34436
G1 X101.801 Y101.827 E6.35632
G1 X102.21 Y101.292 E6.36829
M204 S625
M205 X6 Y6
G0 F3750 X102.626 Y101.457
M204 S500
M205 X5 Y5
G1 F1200 X103.092 Y101.007 E6.3798
G1 X103.609 Y100.618 E6.39131
G1 X104.171 Y100.295 E6.40283
G1 X104.768 Y100.044 E6.41434
G1 X105.392 Y99.868 E6.42587
G1 X106.032 Y99.771 E6.43737
G1 X106.5 Y99.75 E6.4457
G1 X126.5 Y99.75 E6.80122
G1 X127.147 Y99.79 E6.81274
G1 X127.783 Y99.909 E6.82424
G1 X128.4 Y100.106 E6.83576
G1 X128.989 Y100.377 E6.84728
G1 X129.539 Y100.719 E6.85879
G1 X130.043 Y101.126 E6.87031
G1 X130.493 Y101.592 E6.88183
G1 X130.882 Y102.109 E6.89333
G1 X131.205 Y102.671 E6.90485
G1 X131.456 Y103.268 E6.91636
G1 X131.632 Y103.892 E6.92789
G1 X131.729 Y104.532 E6.93939
G1 X131.75 Y105 E6.94772
G1 X131.75 Y110 E7.0366
G1 X131.71 Y110.647 E7.04812
G1 X131.591 Y111.283 E7.05962
G1 X131.394 Y111.9 E7.07114
G1 X131.123 Y112.489 E7.08266
G1 X130.781 Y113.039 E7.09418
G1 X130.374 Y113.543 E7.10569
G1 X129.908 Y113.993 E7.11721
G1 X129.391 Y114.382 E7.12871
G1 X128.829 Y114.705 E7.14023
G1 X128.232 Y114.956 E7.15174
G1 X127.608 Y115.132 E7.16327
G1 X126.968 Y115.229 E7.17477
G1 X126.5 Y115.25 E7.1831
G1 X106.5 Y115.25 E7.53862
G1 X105.853 Y115.21 E7.55014
G1 X105.217 Y115.091 E7.56165
G1 X104.6 Y114.894 E7.57316
G1 X104.011 Y114.623 E7.58468
G1 X103.461 Y114.281 E7.5962
G1 X102.957 Y113.874 E7.60771
G1 X102.507 Y113.408 E7.61923
G1 X102.118 Y112.891 E7.63073
G1 X101.795 Y112.329 E7.64225
G1 X101.544 Y111.732 E7.65376
G1 X101.368 Y111.108 E7.66529
G1 X101.271 Y110.468 E7.6768
G1 X101.25 Y110 E7.68512
G1 X101.25 Y105 E7.774
G1 X101.29 Y104.353 E7.78553
G1 X101.409 Y103.717 E7.79703
G1 X101.606 Y103.1 E7.80854
G1 X101.877 Y102.511 E7.82007
G1 X102.219 Y101.961 E7.83158
G1 X102.626 Y101.457 E7.84309
M204 S625
M205 X6 Y6
G0 F3750 X103.04 Y101.63
M204 S500
M205 X5 Y5
G1 F1200 X103.502 Y101.213 E7.85416
G1 X104.012 Y100.86 E7.86518
G1 X104.564 Y100.575 E7.87623
G1 X105.149 Y100.363 E7.88729
G1 X105.755 Y100.228 E7.89832
G1 X106.5 Y100.17 E7.91161
G1 X126.5 Y100.17 E8.26713
G1 X127.12 Y100.21 E8.27817
G1 X127.73 Y100.329 E8.28922
G1 X128.319 Y100.526 E8.30026
G1 X128.878 Y100.796 E8.31129
G1 X129.398 Y101.136 E8.32234
G1 X129.87 Y101.54 E8.33338
G1 X130.287 Y102.002 E8.34444
G1 X130.64 Y102.512 E8.35547
G1 X130.925 Y103.064 E8.36651
G1 X131.137 Y103.649 E8.37757
G1 X131.272 Y104.255 E8.38861
G1 X131.33 Y105 E8.40189
G1 X131.33 Y110 E8.49077
G1 X131.29 Y110.62 E8.50182
G1 X131.171 Y111.23 E8.51286
G1 X130.974 Y111.819 E8.5239
G1 X130.704 Y112.378 E8.53494
G1 X130.364 Y112.898 E8.54598
G1 X129.96 Y113.37 E8.55703
G1 X129.498 Y113.787 E8.56809
G1 X128.988 Y114.14 E8.57912
G1 X128.436 Y114.425 E8.59016
G1 X127.851 Y114.637 E8.60122
G1 X127.245 Y114.772 E8.61226
G1 X126.5 Y114.83 E8.62554
G1 X106.5 Y114.83 E8.98106
G1 X105.88 Y114.79 E8.9921
G1 X105.27 Y114.671 E9.00315
G1 X104.681 Y114.474 E9.01419
G1 X104.122 Y114.204 E9.02523
G1 X103.602 Y113.864 E9.03627
G1 X103.13 Y113.46 E9.04731
G1 X102.713 Y112.998 E9.05838
G1 X102.36 Y112.488 E9.0694
G1 X102.075 Y111.936 E9.08045
G1 X101.863 Y111.351 E9.09151
G1 X101.728 Y110.745 E9.10254
G1 X101.67 Y110 E9.11583
G1 X101.67 Y105 E9.20471
G1 X101.71 Y104.38 E9.21575
G1 X101.829 Y103.77 E9.2268
G1 X102.026 Y103.181 E9.23784
G1 X102.296 Y102.622 E9.24887
G1 X102.636 Y102.102 E9.25992
G1 X103.04 Y101.63 E9.27096
M204 S625
M205 X6 Y6
G0 F3750 X103.454 Y101.811
M204 S500
M205 X5 Y5
G1 F1200 X103.91 Y101.431 E9.28151
G1 X104.413 Y101.115 E9.29207
G1 X104.953 Y100.87 E9.30261
G1 X105.522 Y100.7 E9.31317
G1 X106.108 Y100.607 E9.32372
G1 X106.5 Y100.59 E9.33069
G1 X126.5 Y100.59 E9.68621
G1 X127.092 Y100.63 E9.69676
G1 X127.674 Y100.749 E9.70732
G1 X128.234 Y100.945 E9.71786
G1 X128.763 Y101.215 E9.72842
G1 X129.251 Y101.553 E9.73897
G1 X129.689 Y101.954 E9.74953
G1 X130.069 Y102.41 E9.76008
G1 X130.385 Y102.913 E9.77064
G1 X130.63 Y103.453 E9.78118
G1 X130.8 Y104.022 E9.79174
G1 X130.893 Y104.608 E9.80228
G1 X130.91 Y105 E9.80926
G1 X130.91 Y110 E9.89814
G1 X130.87 Y110.592 E9.90869
G1 X130.751 Y111.174 E9.91925
G1 X130.555 Y111.734 E9.92979
G1 X130.285 Y112.263 E9.94035
G1 X129.947 Y112.751 E9.9509
G1 X129.546 Y113.189 E9.96146
G1 X129.09 Y113.569 E9.97201
G1 X128.587 Y113.885 E9.98257
G1 X128.047 Y114.13 E9.99311
G1 X127.478 Y114.3 E10.00367
G1 X126.892 Y114.393 E10.01421
G1 X126.5 Y114.41 E10.02119
G1 X106.5 Y114.41 E10.37671
G1 X105.908 Y114.37 E10.38726
G1 X105.326 Y114.251 E10.39781
G1 X104.766 Y114.055 E10.40836
G1 X104.237 Y113.785 E10.41892
G1 X103.749 Y113.447 E10.42947
G1 X103.311 Y113.046 E10.44003
G1 X102.931 Y112.59 E10.45058
G1 X102.615 Y112.087 E10.46114
G1 X102.37 Y111.547 E10.47168
G1 X102.2 Y110.978 E10.48224
G1 X102.107 Y110.392 E10.49278
G1 X102.09 Y110 E10.49976
G1 X102.09 Y105 E10.58864
G1 X102.13 Y104.408 E10.59918
G1 X102.249 Y103.826 E10.60974
G1 X102.445 Y103.266 E10.62029
G1 X102.715 Y102.737 E10.63085
G1 X103.053 Y102.249 E10.6414
G1 X103.454 Y101.811 E10.65196
M204 S625
M205 X6 Y6
G0 F3750 X103.469 Y102.405
M204 S500
M205 X5 Y5
G1 F1200 X103.866 Y102.003 E10.662
G1 X104.315 Y101.661 E10.67203
G1 X104.809 Y101.386 E10.68208
G1 X105.336 Y101.184 E10.69212
G1 X105.886 Y101.058 E10.70215
G1 X106.5 Y101.01 E10.71309
G1 X126.5 Y101.01 E11.06861
G1 X127.063 Y101.05 E11.07865
G1 X127.615 Y101.169 E11.08868
G1 X128.145 Y101.365 E11.09873
G1 X128.641 Y101.633 E11.10875
G1 X129.095 Y101.969 E11.11879
G1 X129.497 Y102.366 E11.12883
G1 X129.839 Y102.815 E11.13887
G1 X130.114 Y103.309 E11.14892
G1 X130.316 Y103.836 E11.15895
G1 X130.442 Y104.386 E11.16898
G1 X130.49 Y105 E11.17993
G1 X130.49 Y110 E11.26881
G1 X130.45 Y110.563 E11.27884
G1 X130.331 Y111.115 E11.28888
G1 X130.135 Y111.645 E11.29892
G1 X129.867 Y112.141 E11.30894
G1 X129.531 Y112.595 E11.31898
G1 X129.134 Y112.997 E11.32903
G1 X128.685 Y113.339 E11.33906
G1 X128.191 Y113.614 E11.34911
G1 X127.664 Y113.816 E11.35914
G1 X127.114 Y113.942 E11.36917
G1 X126.5 Y113.99 E11.38012
G1 X106.5 Y113.99 E11.73564
G1 X105.937 Y113.95 E11.74567
G1 X105.385 Y113.831 E11.75571
G1 X104.855 Y113.635 E11.76576
G1 X104.359 Y113.367 E11.77578
G1 X103.905 Y113.031 E11.78582
G1 X103.503 Y112.634 E11.79586
G1 X103.161 Y112.185 E11.80589
G1 X102.886 Y111.691 E11.81594
G1 X102.684 Y111.164 E11.82598
G1 X102.558 Y110.614 E11.83601
G1 X102.51 Y110 E11.84696
G1 X102.51 Y105 E11.93584
G1 X102.55 Y104.437 E11.94587
G1 X102.669 Y103.885 E11.95591
G1 X102.865 Y103.355 E11.96595
G1 X103.133 Y102.859 E11.97597
G1 X103.469 Y102.405 E11.98601
M204 S625
M205 X6 Y6
G0 F3750 X103.885 Y102.57
M204 S500
M205 X5 Y5
G1 F1200 X104.276 Y102.207 E11.9955
G1 X104.718 Y101.907 E12.00499
G1 X105.199 Y101.675 E12.01449
G1 X105.71 Y101.519 E12.02398
G1 X106.5 Y101.43 E12.03811
G1 X126.5 Y101.43 E12.39363
G1 X127.033 Y101.47 E12.40314
G1 X127.553 Y101.589 E12.41262
G1 X128.05 Y101.784 E12.42211
G1 X128.513 Y102.051 E12.43161
G1 X128.93 Y102.385 E12.44111
G1 X129.293 Y102.776 E12.45059
G1 X129.593 Y103.218 E12.46009
G1 X129.825 Y103.699 E12.46958
G1 X129.981 Y104.21 E12.47908
G1 X130.07 Y105 E12.49321
G1 X130.07 Y110 E12.58209
G1 X130.03 Y110.533 E12.59159
G1 X129.911 Y111.053 E12.60107
G1 X129.716 Y111.55 E12.61056
G1 X129.449 Y112.013 E12.62006
G1 X129.115 Y112.43 E12.62956
G1 X128.724 Y112.793 E12.63904
G1 X128.282 Y113.093 E12.64854
G1 X127.801 Y113.325 E12.65803
G1 X127.29 Y113.481 E12.66753
G1 X126.5 Y113.57 E12.68166
G1 X106.5 Y113.57 E13.03718
G1 X105.967 Y113.53 E13.04668
G1 X105.447 Y113.411 E13.05616
G1 X104.95 Y113.216 E13.06565
G1 X104.487 Y112.949 E13.07516
G1 X104.07 Y112.615 E13.08465
G1 X103.707 Y112.224 E13.09414
G1 X103.407 Y111.782 E13.10363
G1 X103.175 Y111.301 E13.11313
G1 X103.019 Y110.79 E13.12262
G1 X102.93 Y110 E13.13675
G1 X102.93 Y105 E13.22563
G1 X102.97 Y104.467 E13.23514
G1 X103.089 Y103.947 E13.24462
G1 X103.284 Y103.45 E13.25411
G1 X103.551 Y102.987 E13.26361
G1 X103.885 Y102.57 E13.27311
M204 S625
M205 X6 Y6
G0 F3750 X104.299 Y102.747
M204 S500
M205 X5 Y5
G1 F1200 X104.684 Y102.426 E13.28202
G1 X105.116 Y102.17 E13.29094
G1 X105.583 Y101.987 E13.29986
G1 X106.072 Y101.879 E13.30876
