;START_OF_HEADER
;HEADER_VERSION:0.1
;FLAVOR:Griffin
;GENERATOR.NAME:Cura_SteamEngine
;GENERATOR.VERSION:4.6.1
;GENERATOR.BUILD_DATE:2020-04-29
;TARGET_MACHINE.NAME:Ultimaker 3
;EXTRUDER_TRAIN.0.INITIAL_TEMPERATURE:205
;EXTRUDER_TRAIN.0.MATERIAL.VOLUME_USED:1699
;EXTRUDER_TRAIN.0.MATERIAL.GUID:9cfe5bf1-bdc5-4beb-871a-52c70777842d
;EXTRUDER_TRAIN.0.NOZZLE.DIAMETER:0.4
;EXTRUDER_TRAIN.0.NOZZLE.NAME:AA 0.4
;BUILD_PLATE.TYPE:glass
;BUILD_PLATE.INITIAL_TEMPERATURE:60
;PRINT.TIME:1180
;PRINT.GROUPS:1
;PRINT.SIZE.MIN.X:9
;PRINT.SIZE.MIN.Y:6
;PRINT.SIZE.MIN.Z:0.27
;PRINT.SIZE.MAX.X:134.379
;PRINT.SIZE.MAX.Y:125.388
;PRINT.SIZE.MAX.Z:7.92
;END_OF_HEADER
;Generated with Cura_SteamEngine 4.6.1
T0
M82 ;absolute extrusion mode

G92 E0
M109 S205
G0 F15000 X9 Y6 Z2
G280
G1 F1500 E-6.5
;LAYER_COUNT:52
;LAYER:0
M107
M204 S625
M205 X6 Y6
G0 F3750 X103.319 Y95.427 Z0.27
M204 S500
M205 X5 Y5
;TYPE:SKIRT
G1 F1500 E0
G1 F1200 X104.177 Y94.551 E0.0218
G1 X104.718 Y94.054 E0.03486
G1 X105.278 Y93.592 E0.04776
G1 X105.79 Y93.187 E0.05936
G1 X106.267 Y92.842 E0.06983
G1 X106.874 Y92.442 E0.08275
G1 X107.513 Y92.049 E0.09609
G1 X108.569 Y91.483 E0.11738
G1 X109.361 Y91.114 E0.13292
G1 X110.381 Y90.707 E0.15244
G1 X110.966 Y90.509 E0.16342
G1 X112.141 Y90.169 E0.18516
G1 X112.904 Y89.994 E0.19908
G1 X114.114 Y89.788 E0.22089
G1 X114.892 Y89.701 E0.23481
G1 X116.115 Y89.633 E0.25658
G1 X116.879 Y89.632 E0.27016
G1 X118.101 Y89.699 E0.29192
G1 X118.837 Y89.779 E0.30508
G1 X119.555 Y89.896 E0.31801
G1 X120.166 Y90.006 E0.32905
G1 X120.765 Y90.142 E0.33996
G1 X121.465 Y90.334 E0.35287
G1 X122.156 Y90.544 E0.36571
G1 X122.638 Y90.713 E0.37479
G1 X123.316 Y90.979 E0.38773
G1 X124.079 Y91.313 E0.40254
G1 X125.086 Y91.824 E0.42261
G1 X125.611 Y92.128 E0.43339
G1 X126.644 Y92.787 E0.45518
G1 X127.283 Y93.247 E0.46917
G1 X128.236 Y94.02 E0.49098
G1 X128.81 Y94.542 E0.50478
G1 X129.668 Y95.414 E0.52652
G1 X130.173 Y95.988 E0.54011
G1 X130.931 Y96.951 E0.5619
G1 X131.365 Y97.568 E0.57531
G1 X131.75 Y98.185 E0.58823
G1 X132.05 Y98.677 E0.59848
G1 X132.371 Y99.266 E0.6104
G1 X132.687 Y99.92 E0.62331
G1 X132.968 Y100.537 E0.63536
G1 X133.17 Y101.035 E0.64492
G1 X133.417 Y101.719 E0.65784
G1 X133.664 Y102.489 E0.67222
G1 X133.952 Y103.61 E0.69279
G1 X134.127 Y104.5 E0.70892
G1 X134.275 Y105.558 E0.72791
G1 X134.329 Y106.183 E0.73906
G1 X134.379 Y107.407 E0.76083
G1 X134.367 Y108.187 E0.7747
G1 X134.279 Y109.41 E0.7965
G1 X134.18 Y110.183 E0.81035
G1 X133.955 Y111.39 E0.83218
G1 X133.773 Y112.133 E0.84577
G1 X133.417 Y113.306 E0.86756
G1 X133.164 Y114.003 E0.88074
G1 X132.881 Y114.669 E0.89361
G1 X132.625 Y115.245 E0.90481
G1 X132.35 Y115.793 E0.91571
G1 X131.996 Y116.427 E0.92862
G1 X131.633 Y117.039 E0.94127
G1 X131.355 Y117.466 E0.95033
G1 X130.937 Y118.06 E0.96324
G1 X130.416 Y118.74 E0.97846
G1 X129.698 Y119.576 E0.99805
G1 X129.267 Y120.026 E1.00913
G1 X128.381 Y120.871 E1.03089
G1 X127.892 Y121.296 E1.04241
G1 X127.498 Y121.607 E1.05133
G1 X126.735 Y122.174 E1.06823
G1 X126.224 Y122.517 E1.07917
G1 X125.706 Y122.831 E1.08994
G1 X125.082 Y123.198 E1.10281
G1 X124.431 Y123.537 E1.11585
G1 X123.315 Y124.043 E1.13764
G1 X122.616 Y124.315 E1.15097
G1 X121.925 Y124.542 E1.1639
G1 X121.361 Y124.719 E1.17441
G1 X120.752 Y124.88 E1.1856
G1 X120.04 Y125.034 E1.19855
G1 X119.343 Y125.166 E1.21116
G1 X118.809 Y125.244 E1.22076
G1 X118.088 Y125.32 E1.23364
G1 X117.293 Y125.376 E1.24781
G1 X116.127 Y125.388 E1.26854
G1 X115.236 Y125.347 E1.28439
G1 X114.173 Y125.241 E1.30338
G1 X113.536 Y125.142 E1.31484
G1 X112.332 Y124.897 E1.33668
G1 X111.587 Y124.702 E1.35037
G1 X110.421 Y124.326 E1.37215
G1 X109.693 Y124.045 E1.38602
G1 X108.576 Y123.54 E1.40781
G1 X107.891 Y123.183 E1.42154
G1 X106.839 Y122.558 E1.4433
G1 X106.236 Y122.155 E1.45619
G1 X105.654 Y121.721 E1.46909
G1 X105.135 Y121.318 E1.48077
G1 X104.697 Y120.945 E1.491
G1 X104.164 Y120.452 E1.50391
G1 X103.622 Y119.918 E1.51743
G1 X102.819 Y119.025 E1.53878
G1 X102.288 Y118.366 E1.55382
G1 X101.632 Y117.447 E1.57389
G1 X101.125 Y116.638 E1.59087
G1 X100.639 Y115.77 E1.60855
G1 X100.345 Y115.173 E1.62038
G1 X99.858 Y114.051 E1.64212
G1 X99.603 Y113.367 E1.6551
G1 X99.453 Y112.889 E1.664
G1 X99.217 Y112.101 E1.67862
G1 X99.047 Y111.396 E1.69152
G1 X98.821 Y110.19 E1.71333
G1 X98.723 Y109.458 E1.72646
G1 X98.666 Y108.734 E1.73936
G1 X98.627 Y108.126 E1.75019
G1 X98.617 Y107.504 E1.76125
G1 X98.637 Y106.776 E1.7742
G1 X98.677 Y106.051 E1.78711
G1 X98.726 Y105.545 E1.79614
G1 X98.823 Y104.824 E1.80907
G1 X98.96 Y104.024 E1.8235
G1 X99.224 Y102.896 E1.8441
G1 X99.476 Y102.037 E1.86001
G1 X99.832 Y101.03 E1.87899
G1 X100.077 Y100.442 E1.89032
G1 X100.599 Y99.333 E1.91211
G1 X100.973 Y98.642 E1.92607
G1 X101.618 Y97.598 E1.94789
G1 X102.061 Y96.963 E1.96165
G1 X102.817 Y95.999 E1.98343
G1 X103.319 Y95.427 E1.99696
M204 S625
M205 X6 Y6
G0 F3750 X103.619 Y95.721
M204 S500
M205 X5 Y5
G1 F1200 X104.477 Y94.845 E2.01875
G1 X104.985 Y94.378 E2.03102
G1 X105.545 Y93.916 E2.04392
G1 X106.05 Y93.516 E2.05538
G1 X106.498 Y93.193 E2.06519
G1 X107.105 Y92.793 E2.07811
G1 X107.731 Y92.407 E2.09119
G1 X108.762 Y91.856 E2.11197
G1 X109.534 Y91.497 E2.1271
G1 X110.533 Y91.098 E2.14622
G1 X111.082 Y90.913 E2.15652
G1 X112.257 Y90.573 E2.17827
G1 X112.974 Y90.408 E2.19135
G1 X114.184 Y90.202 E2.21316
G1 X114.916 Y90.12 E2.22626
G1 X116.139 Y90.052 E2.24803
G1 X116.856 Y90.052 E2.26078
G1 X118.078 Y90.119 E2.28253
G1 X118.769 Y90.194 E2.29489
G1 X119.487 Y90.311 E2.30782
G1 X120.091 Y90.419 E2.31872
G1 X120.654 Y90.547 E2.32899
G1 X121.354 Y90.739 E2.34189
G1 X122.032 Y90.945 E2.35449
G1 X123.163 Y91.37 E2.37596
G1 X123.907 Y91.696 E2.3904
G1 X124.892 Y92.196 E2.41004
G1 X125.385 Y92.482 E2.42017
G1 X126.418 Y93.141 E2.44195
G1 X127.018 Y93.573 E2.45509
G1 X127.971 Y94.346 E2.47691
G1 X128.51 Y94.836 E2.48986
G1 X129.368 Y95.708 E2.5116
G1 X129.843 Y96.248 E2.52439
G1 X130.601 Y97.211 E2.54617
G1 X131.009 Y97.791 E2.55878
G1 X131.394 Y98.408 E2.5717
G1 X131.691 Y98.895 E2.58184
G1 X131.993 Y99.449 E2.59306
G1 X132.309 Y100.103 E2.60597
G1 X132.585 Y100.71 E2.61782
G1 X132.775 Y101.178 E2.6268
G1 X133.022 Y101.862 E2.63973
G1 X133.263 Y102.614 E2.65377
G1 X133.544 Y103.71 E2.67388
G1 X133.714 Y104.576 E2.68957
G1 X133.859 Y105.613 E2.70818
G1 X133.91 Y106.2 E2.71865
G1 X133.96 Y107.424 E2.74043
G1 X133.948 Y108.157 E2.75346
G1 X133.86 Y109.38 E2.77526
G1 X133.767 Y110.106 E2.78827
G1 X133.542 Y111.313 E2.81009
G1 X133.371 Y112.011 E2.82287
G1 X133.015 Y113.184 E2.84466
G1 X132.778 Y113.839 E2.85704
G1 X132.495 Y114.505 E2.8699
G1 X132.241 Y115.073 E2.88096
G1 X131.983 Y115.589 E2.89122
G1 X131.629 Y116.223 E2.90413
G1 X131.273 Y116.824 E2.91654
G1 X130.594 Y117.818 E2.93794
G1 X130.086 Y118.481 E2.95279
G1 X129.382 Y119.299 E2.97197
G1 X128.977 Y119.722 E2.98238
G1 X128.091 Y120.567 E3.00415
G1 X127.631 Y120.966 E3.01497
G1 X127.237 Y121.277 E3.0239
G1 X126.486 Y121.836 E3.04054
G1 X126.006 Y122.158 E3.05081
G1 X125.493 Y122.469 E3.06148
G1 X124.869 Y122.836 E3.07434
G1 X124.257 Y123.154 E3.0866
G1 X123.141 Y123.66 E3.10839
G1 X122.485 Y123.916 E3.1209
G1 X121.794 Y124.143 E3.13383
G1 X121.235 Y124.319 E3.14425
G1 X120.663 Y124.47 E3.15477
G1 X119.951 Y124.624 E3.16772
G1 X119.267 Y124.753 E3.18009
G1 X118.765 Y124.826 E3.18911
G1 X118.044 Y124.902 E3.20199
G1 X117.267 Y124.956 E3.21584
G1 X116.128 Y124.968 E3.23609
G1 X115.261 Y124.928 E3.25152
G1 X114.218 Y124.823 E3.27015
G1 X113.62 Y124.73 E3.28091
G1 X112.416 Y124.485 E3.30275
G1 X111.716 Y124.302 E3.31561
G1 X110.55 Y123.926 E3.33739
G1 X109.866 Y123.662 E3.35042
G1 X108.749 Y123.157 E3.37221
G1 X108.106 Y122.822 E3.3851
G1 X107.054 Y122.197 E3.40685
G1 X106.487 Y121.819 E3.41896
G1 X105.905 Y121.385 E3.43187
G1 X105.394 Y120.987 E3.44338
G1 X104.983 Y120.637 E3.45298
G1 X104.45 Y120.144 E3.46589
G1 X103.918 Y119.621 E3.47915
G1 X103.136 Y118.748 E3.49998
G1 X102.618 Y118.105 E3.51466
G1 X101.976 Y117.206 E3.5343
G1 X101.484 Y116.42 E3.55078
G1 X101.006 Y115.566 E3.56818
G1 X100.73 Y115.006 E3.57927
G1 X100.243 Y113.884 E3.60102
G1 X100.004 Y113.241 E3.61321
G1 X99.854 Y112.763 E3.62212
G1 X99.62 Y111.981 E3.63663
G1 X99.459 Y111.319 E3.64874
G1 X99.233 Y110.113 E3.67055
G1 X99.142 Y109.425 E3.68288
G1 X99.085 Y108.701 E3.69579
G1 X99.047 Y108.1 E3.7065
G1 X99.036 Y107.515 E3.7169
G1 X99.056 Y106.787 E3.72984
G1 X99.096 Y106.077 E3.74248
G1 X99.239 Y104.88 E3.76391
G1 X99.374 Y104.098 E3.77802
G1 X99.632 Y102.996 E3.79814
G1 X99.878 Y102.16 E3.81363
G1 X100.227 Y101.173 E3.83224
G1 X100.457 Y100.621 E3.84287
G1 X100.979 Y99.512 E3.86466
G1 X101.331 Y98.862 E3.8778
G1 X101.976 Y97.818 E3.89961
G1 X102.391 Y97.223 E3.91251
G1 X103.147 Y96.259 E3.93428
G1 X103.619 Y95.721 E3.94701
M204 S625
M205 X6 Y6
G0 F3750 X103.919 Y96.015
M204 S500
M205 X5 Y5
G1 F1200 X104.777 Y95.139 E3.9688
G1 X105.252 Y94.702 E3.98028
G1 X105.812 Y94.24 E3.99318
G1 X106.31 Y93.846 E4.00447
G1 X106.729 Y93.544 E4.01365
G1 X107.336 Y93.144 E4.02657
G1 X107.949 Y92.766 E4.03937
G1 X108.955 Y92.229 E4.05965
G1 X109.707 Y91.88 E4.07438
G1 X110.685 Y91.49 E4.0931
G1 X111.199 Y91.316 E4.10274
G1 X112.374 Y90.976 E4.12449
G1 X113.045 Y90.822 E4.13673
G1 X114.255 Y90.616 E4.15854
G1 X114.939 Y90.539 E4.17078
G1 X116.162 Y90.471 E4.19255
G1 X116.833 Y90.471 E4.20448
G1 X118.055 Y90.538 E4.22624
G1 X118.701 Y90.608 E4.23779
G1 X119.419 Y90.725 E4.25072
G1 X120.016 Y90.832 E4.2615
G1 X120.543 Y90.952 E4.27111
G1 X121.243 Y91.144 E4.28401
G1 X121.907 Y91.346 E4.29635
G1 X123.009 Y91.761 E4.31728
G1 X123.735 Y92.079 E4.33137
G1 X124.698 Y92.569 E4.35058
G1 X125.159 Y92.836 E4.36005
G1 X126.192 Y93.495 E4.38183
G1 X126.753 Y93.899 E4.39412
G1 X127.706 Y94.672 E4.41593
G1 X128.211 Y95.131 E4.42806
G1 X129.069 Y96.003 E4.4498
G1 X129.513 Y96.507 E4.46174
G1 X130.271 Y97.47 E4.48353
G1 X130.653 Y98.013 E4.49533
G1 X131.038 Y98.63 E4.50826
G1 X131.333 Y99.114 E4.51833
G1 X131.614 Y99.632 E4.52881
G1 X131.93 Y100.286 E4.54172
G1 X132.202 Y100.883 E4.55338
G1 X132.627 Y102.005 E4.57471
G1 X132.862 Y102.739 E4.58841
G1 X133.136 Y103.81 E4.60806
G1 X133.301 Y104.651 E4.6233
G1 X133.443 Y105.668 E4.64155
G1 X133.49 Y106.217 E4.65135
G1 X133.54 Y107.441 E4.67312
G1 X133.529 Y108.127 E4.68532
G1 X133.441 Y109.35 E4.70711
G1 X133.354 Y110.029 E4.71928
G1 X133.129 Y111.236 E4.74111
G1 X132.97 Y111.889 E4.75305
G1 X132.614 Y113.062 E4.77484
G1 X132.391 Y113.675 E4.78644
G1 X132.108 Y114.341 E4.7993
G1 X131.858 Y114.902 E4.81022
G1 X131.616 Y115.384 E4.81981
G1 X131.262 Y116.018 E4.83272
G1 X130.912 Y116.608 E4.84491
G1 X130.25 Y117.577 E4.86577
G1 X129.755 Y118.222 E4.88022
G1 X129.066 Y119.022 E4.89899
G1 X128.687 Y119.418 E4.90874
G1 X127.801 Y120.263 E4.9305
G1 X127.371 Y120.636 E4.94062
G1 X126.977 Y120.947 E4.94954
G1 X126.236 Y121.498 E4.96596
G1 X125.787 Y121.8 E4.97557
G1 X125.28 Y122.107 E4.98611
G1 X124.656 Y122.474 E4.99898
G1 X124.084 Y122.772 E5.01044
G1 X122.968 Y123.278 E5.03223
G1 X122.354 Y123.517 E5.04394
G1 X121.663 Y123.744 E5.05687
G1 X121.11 Y123.918 E5.06717
G1 X120.574 Y124.059 E5.07702
G1 X119.862 Y124.213 E5.08997
G1 X119.191 Y124.34 E5.10211
G1 X118 Y124.484 E5.12344
G1 X117.241 Y124.537 E5.13696
G1 X116.129 Y124.548 E5.15673
G1 X115.285 Y124.509 E5.17175
G1 X114.263 Y124.406 E5.19001
G1 X113.704 Y124.319 E5.20006
G1 X112.5 Y124.074 E5.22191
G1 X111.845 Y123.902 E5.23394
G1 X110.679 Y123.526 E5.25572
G1 X110.039 Y123.279 E5.26792
G1 X108.922 Y122.774 E5.28971
G1 X108.32 Y122.461 E5.30177
G1 X107.268 Y121.836 E5.32352
G1 X106.738 Y121.482 E5.33485
G1 X106.156 Y121.048 E5.34775
G1 X105.652 Y120.656 E5.3591
G1 X105.268 Y120.329 E5.36807
G1 X104.735 Y119.836 E5.38098
G1 X104.215 Y119.323 E5.39396
G1 X103.452 Y118.472 E5.41428
G1 X102.948 Y117.845 E5.42858
G1 X102.321 Y116.966 E5.44777
G1 X101.844 Y116.203 E5.46377
G1 X101.374 Y115.363 E5.48088
G1 X101.116 Y114.839 E5.49126
G1 X100.629 Y113.717 E5.513
G1 X100.404 Y113.115 E5.52443
G1 X100.254 Y112.637 E5.53333
G1 X100.022 Y111.861 E5.54773
G1 X99.872 Y111.242 E5.55905
G1 X99.646 Y110.036 E5.58086
G1 X99.561 Y109.392 E5.59241
G1 X99.504 Y108.668 E5.60532
G1 X99.466 Y108.074 E5.6159
G1 X99.456 Y107.527 E5.62562
G1 X99.476 Y106.799 E5.63857
G1 X99.515 Y106.102 E5.65098
G1 X99.655 Y104.936 E5.67185
G1 X99.787 Y104.173 E5.68562
G1 X100.039 Y103.097 E5.70526
G1 X100.279 Y102.284 E5.72033
G1 X100.622 Y101.317 E5.73857
G1 X100.837 Y100.799 E5.74854
G1 X101.359 Y99.69 E5.77033
G1 X101.688 Y99.083 E5.7826
G1 X102.333 Y98.039 E5.80442
G1 X102.722 Y97.482 E5.81649
G1 X103.478 Y96.518 E5.83827
G1 X103.919 Y96.015 E5.85016
M204 S625
M205 X6 Y6
G0 F3750 X104.219 Y96.309
M204 S500
M205 X5 Y5
G1 F1200 X105.077 Y95.433 E5.87196
G1 X105.52 Y95.026 E5.88265
G1 X106.08 Y94.564 E5.89556
G1 X106.57 Y94.176 E5.90667
G1 X107.567 Y93.495 E5.92813
G1 X108.167 Y93.125 E5.94066
G1 X109.149 Y92.602 E5.96044
G1 X109.88 Y92.262 E5.97477
G1 X110.837 Y91.881 E5.99308
G1 X111.316 Y91.719 E6.00207
G1 X112.491 Y91.379 E6.02381
G1 X113.115 Y91.236 E6.03519
G1 X114.325 Y91.03 E6.05701
G1 X114.962 Y90.959 E6.0684
G1 X116.185 Y90.891 E6.09017
G1 X116.81 Y90.891 E6.10128
G1 X118.032 Y90.958 E6.12304
G1 X118.634 Y91.023 E6.1338
G1 X119.352 Y91.14 E6.14673
G1 X119.941 Y91.246 E6.15737
G1 X120.432 Y91.357 E6.16632
G1 X121.132 Y91.549 E6.17922
G1 X121.783 Y91.747 E6.19132
G1 X122.856 Y92.152 E6.21171
G1 X123.563 Y92.462 E6.22543
G1 X124.504 Y92.941 E6.2442
G1 X124.933 Y93.19 E6.25302
G1 X125.966 Y93.849 E6.2748
G1 X126.489 Y94.225 E6.28625
G1 X127.442 Y94.998 E6.30806
G1 X127.912 Y95.425 E6.31935
G1 X128.77 Y96.297 E6.34109
G1 X129.183 Y96.767 E6.35222
G1 X129.941 Y97.73 E6.374
G1 X130.296 Y98.235 E6.38497
G1 X130.681 Y98.852 E6.3979
G1 X130.974 Y99.332 E6.4079
G1 X131.236 Y99.814 E6.41765
G1 X131.552 Y100.468 E6.43056
G1 X131.82 Y101.056 E6.44205
G1 X132.232 Y102.147 E6.46278
G1 X132.461 Y102.864 E6.47616
G1 X132.728 Y103.909 E6.49533
G1 X132.887 Y104.727 E6.51014
G1 X133.026 Y105.723 E6.52802
G1 X133.07 Y106.235 E6.53715
G1 X133.12 Y107.459 E6.55893
G1 X133.11 Y108.097 E6.57027
G1 X133.022 Y109.32 E6.59207
G1 X132.941 Y109.952 E6.6034
G1 X132.716 Y111.159 E6.62522
G1 X132.568 Y111.767 E6.63634
G1 X132.212 Y112.94 E6.65813
G1 X132.004 Y113.51 E6.66892
G1 X131.721 Y114.176 E6.68178
G1 X131.475 Y114.73 E6.69256
G1 X131.25 Y115.179 E6.70149
G1 X130.896 Y115.813 E6.71439
G1 X130.552 Y116.392 E6.72637
G1 X129.907 Y117.335 E6.74667
G1 X129.425 Y117.963 E6.76075
G1 X128.75 Y118.746 E6.77912
G1 X128.397 Y119.114 E6.78819
G1 X127.511 Y119.959 E6.80995
G1 X127.111 Y120.307 E6.81938
G1 X126.717 Y120.618 E6.8283
G1 X125.987 Y121.16 E6.84446
G1 X125.569 Y121.441 E6.85341
G1 X125.067 Y121.745 E6.86385
G1 X124.443 Y122.112 E6.87672
G1 X123.91 Y122.389 E6.88739
G1 X122.794 Y122.895 E6.90918
G1 X122.223 Y123.118 E6.92007
G1 X121.532 Y123.345 E6.933
G1 X120.984 Y123.517 E6.94321
G1 X120.486 Y123.649 E6.95237
G1 X119.774 Y123.803 E6.96532
G1 X119.114 Y123.927 E6.97726
G1 X117.956 Y124.067 E6.99799
G1 X117.215 Y124.118 E7.01119
G1 X116.129 Y124.128 E7.0305
G1 X115.309 Y124.089 E7.04509
G1 X114.308 Y123.988 E7.06298
G1 X113.787 Y123.907 E7.07235
G1 X112.583 Y123.662 E7.09419
G1 X111.974 Y123.502 E7.10538
G1 X110.808 Y123.126 E7.12716
G1 X110.212 Y122.897 E7.13851
G1 X109.095 Y122.392 E7.1603
G1 X108.535 Y122.1 E7.17153
G1 X107.483 Y121.475 E7.19328
G1 X106.99 Y121.145 E7.20382
G1 X106.408 Y120.711 E7.21673
G1 X105.911 Y120.325 E7.22792
G1 X105.02 Y119.527 E7.24918
G1 X104.511 Y119.026 E7.26187
G1 X103.768 Y118.196 E7.28167
G1 X103.277 Y117.585 E7.29561
G1 X102.665 Y116.725 E7.31437
G1 X102.203 Y115.986 E7.32986
G1 X101.741 Y115.16 E7.34669
G1 X101.501 Y114.672 E7.35635
G1 X101.014 Y113.55 E7.3781
G1 X100.805 Y112.99 E7.38872
G1 X100.655 Y112.512 E7.39763
G1 X100.425 Y111.741 E7.41193
G1 X100.285 Y111.164 E7.42248
G1 X100.059 Y109.958 E7.44429
G1 X99.979 Y109.359 E7.45504
G1 X99.922 Y108.635 E7.46795
G1 X99.885 Y108.048 E7.4784
G1 X99.876 Y107.538 E7.48747
G1 X99.896 Y106.81 E7.50042
G1 X99.934 Y106.127 E7.51257
G1 X100.072 Y104.992 E7.5329
G1 X100.2 Y104.248 E7.54632
G1 X100.447 Y103.197 E7.56551
